!!!COM: Scarlatti, Domenico
!!!CDT: 1685-1757
!!!OTL: Sonata in G major, L.333, K.425
!!!SCT: K. 425
!!!SCT: L. 333
!!!OMD: Allegro molto ([quarter-dot]=88)
**kern	**kern	**dynam
*staff2	*staff1	*staff1/2
*Icemba	*Icemba	*
*I"L.333 (K.425)	*I"L.333 (K.425)	*
*>[A,A,B,B]	*>[A,A,B,B]	*>[A,A,B,B]
*>norep[A,B]	*>norep[A,B]	*>norep[A,B]
*>A	*>A	*>A
*clefF4	*clefG2	*
*k[f#]	*k[f#]	*
*G:	*G:	*
*M3/8	*M3/8	*
*MM132	*MM132	*
=1-	=1-	=1-
*clefG2	*	*
8r	4.dd	p
(8gL	.	.
8bJ)	.	.
=2	=2	=2
8r	4.ccMM	.
(8aL	.	.
8f#J)	.	.
=3	=3	=3
8r	(4.bmm	.
(8gL	.	.
8BJ	.	.
*clefF4	*	*
=4	=4	=4
8c'L)	8ee'L)	mf
8d'	8a'	.
8D'J	8cc'J	.
*clefG2	*	*
=5	=5	=5
8r	4.dd	p
(8gL	.	.
8bJ)	.	.
=6	=6	=6
8r	4.ccMM	.
(8aL	.	.
8f#J)	.	.
=7	=7	=7
8r	(4.bmm	.
(8gL	.	.
8BJ	.	.
*clefF4	*	*
!!LO:LB:g=z
=8	=8	=8
8c'L)	8eeL)	mf
8d'	8a'	.
8D'J	8cc'J	.
=9	=9	=9
(4.G	(8bL	p
.	8dd	.
.	8ggJ	.
=10	=10	=10
4.D)	8ff#L	<
.	8a	.
.	8ccJ)	.
=11	=11	=11
8r	(4.b	.
(8GL	.	.
8dJ	.	.
=12	=12	=12
8cL	4.f# 4.a)	.
8A	.	.
8DJ)	.	.
=13	=13	=13
4.G (4.B	8r	mf
.	(8bL	.
.	8ddJ	.
=14	=14	=14
4.A 4.c	8ccL	.
.	8a	.
.	8f#J	.
=15	=15	=15
4.B 4.d	8gL)	.
.	(8dd	.
.	8ff#J	.
=16	=16	=16
4.c# 4.e)	8eeL	.
.	8cc#	.
.	8aJ)	.
!!LO:LB:g=z
=17	=17	=17
8r	4.aa	f
(8dL	.	.
8f#J)	.	.
=18	=18	=18
8r	4.ggMM	.
(8eL	.	.
8c#J)	.	.
=19	=19	=19
8r	(4.ff#mm	.
(8dL	.	.
8DJ	.	.
=20	=20	=20
8G'L)	8ee'L)	.
8A'	8dd' 8ff#'	.
8AA'J	8cc#' 8gg'J	.
=21	=21	=21
8r	4.aa	.
(8dL	.	.
8f#J)	.	.
=22	=22	=22
8r	4.ggMM	.
(8eL	.	.
8c#J)	.	.
=23	=23	=23
8r	(4.ff#mm	.
(8dL	.	.
8DJ	.	.
=24	=24	=24
8G'L)	8ee'L)	.
8A'	8dd' 8ff#'	.
8AA'J	8cc#' 8gg'J	.
=25	=25	=25
(<4.D	16dd (16ff#LL	.
.	16ee	.
.	16dd	.
.	16cc#	.
.	16b	.
.	16aJJ	.
!!LO:LB:g=z
=26	=26	=26
4.GG	16gLL	.
.	16f#	.
.	16e	.
.	16d	.
.	16c#	.
.	16BJJ	.
=27	=27	=27
4.AA)	4.A)MM<	.
=28	=28	=28
4.r;	4.r;	.
=29	=29	=29
8r	(4.fn	p
(8AL	.	.
8dJ)	.	.
=30	=30	=30
8r	4.g#	.
(8AL	.	.
8eJ)	.	.
=31	=31	=31
8r	4.a	.
(8AL	.	.
8fnJ)	.	.
=32	=32	=32
8r	4.b- 4.cc#)	.
(8AL	.	.
8gJ	.	.
=33	=33	=33
*	*^	*
8fnL	(8ddL	4.a	<
8e	8ee	.	.
8dJ)	[8ffnJ	.	[[
=34	=34	=34	=34
(4.EE	8ffnL]	4.g#	mf
.	8ee	.	.
.	8ddJ	.	.
!!LO:LB:g=z
=35	=35	=35	=35
4.AAA)	8cc#L	4.a	.
.	8dd	.	.
.	8eeJ)	.	.
*	*v	*v	*
=36	=36	=36
4.r	(8gL	>
.	8fn	.
.	8eJ	.
=37	=37	=37
8r	4.fn	] p
(8AL	.	.
8dJ)	.	.
=38	=38	=38
8r	4.g#	.
(8AL	.	.
8eJ)	.	.
=39	=39	=39
8r	4.a	.
(8AL	.	.
8fnJ)	.	.
=40	=40	=40
8r	4.b- 4.cc#)	.
(8AL	.	.
8gJ	.	.
=41	=41	=41
*	*^	*
8fnL	(8ddL	4.a	<
8e	8ee	.	.
8dJ)	[8ffnJ	.	.
=42	=42	=42	=42
(4.EE	8ffnXL]	4.g#	.
.	8ee	.	.
.	8ddJ	.	.
=43	=43	=43	=43
4.AAA)	8eeL	4.gn	.
.	8ffn	.	.
.	[8ggJ	.	.
!!LO:LB:g=z
=44	=44	=44	=44
(4.AAA	8ggL]	4.cc#	.
.	8ffn	.	.
.	8eeJ	.	.
=45	=45	=45	=45
4.DD	8ffnL	8dd	.
.	8gg	4ryy	.
.	[>8aaJ	.	.
*	*v	*v	*
=46	=46	=46
4.FFn	16aaLL]	.
.	16gg	.
.	16ffn	.
.	16ee	.
.	16dd	.
.	16ccnJJ	.
=47	=47	=47
4.GG	16b-LL	.
.	16a	.
.	16g	.
.	16ffn	.
.	16ee	.
.	16ddJJ	.
=48	=48	=48
4.AA	8dd')	.
.	[16cc#qq	.
.	(4cc#t]	.
.	32bqLLL	.
.	32cc#qJJJ	.
=49	=49	=49
4DD)	8dd'L)	f
.	(16aL	.
.	16ff#	.
(8D	16ee	.
.	16ddJJ	.
=50	=50	=50
8C#'L<)	8aa'L)	.
(8AA	(16aL	.
.	16gg	.
8GJ	16ff#	.
.	16eeJJ	.
!!LO:LB:g=z
=51	=51	=51
8F#'L)	8dd'L)	.
(8D	(16aL	.
.	16ff#	.
8dJ	16ee	.
.	16ddJJ	.
=52	=52	=52
8c#'L)	8aa'L)	.
(8A	(16aL	.
.	16gg	.
8c#J	16ff#	.
.	16eeJJ	.
=53	=53	=53
4d)	8dd'L)	.
.	(16aL	.
.	16ff#	.
(8D	16ee	.
.	16ddJJ	.
=54	=54	=54
8F#'L)	16aaLL	.
.	16gg	.
8D'	16ff#	.
.	16ee	.
8F#'J	16dd	.
.	16cc#JJ	.
=55	=55	=55
4G	16bLL	.
.	16a	.
.	16g	.
.	16gg	.
(8GG	16ff#	.
.	16eeJJ	.
=56	=56	=56
4AA	8dd')	.
.	[16cc#qq	.
.	(4cc#t]	.
8AAA	.	.
.	32bqLLL	.
.	32cc#qJJJ	.
=57	=57	=57
4DD)	8dd'L)	.
.	(16aL	p
.	16ff#	.
(8D	16ee	.
.	16ddJJ	.
!!LO:LB:g=z
=58	=58	=58
8C#'L<)	8aa'L)	.
(8AA	(16aL	.
.	16gg	.
8GJ	16ff#	.
.	16eeJJ	.
=59	=59	=59
8F#'L)	8dd'L)	<
(8D	(16aL	.
.	16ff#	.
8dJ	16ee	.
.	16ddJJ	.
=60	=60	=60
8c#'L)	8aa'L)	.
(8A	(16aL	.
.	16gg	.
8c#J	16ff#	.
.	16eeJJ	.
=61	=61	=61
4d)	8dd'L)	.
.	(16aL	.
.	16ff#	.
(8D	16ee	.
.	16ddJJ	.
=62	=62	=62
8F#'L)	16aaLL	f
.	16gg	.
8D'	16ff#	.
.	16ee	.
8F#'J	16dd	.
.	16cc#JJ	.
=63	=63	=63
(4.GG	16bLL	.
.	16a	.
.	16g	.
.	16f#	.
.	16e	.
.	16dJJ	.
*	*clefF4	*clefF4
!!LO:LB:g=z
=64	=64	=64
4.AA	16c#LL	.
.	16B	.
.	16A	.
.	16G	.
.	16F#	.
.	16EJJ	.
=65	=65	=65
4.DD)	4.D)MM	.
*	*clefG2	*clefG2
=66:|!|:	=66:|!|:	=66:|!|:
*>B	*>B	*>B
8r	4.f#\ 4.dd\	p
(8DL	.	.
8dJ)	.	.
=67	=67	=67
8r	4.g 4.dd	.
(8EL	.	.
8dJ)	.	.
=68	=68	=68
8r	4.a 4.dd	.
(8F#L	.	.
8dJ)	.	.
=69	=69	=69
8r	4.b 4.dd	.
(8G#L	.	.
8eJ)	.	.
=70	=70	=70
(4.A	8a (8ccL	.
.	8b 8dd	.
.	8cc 8eeJ)	.
=71	=71	=71
4.D	8g# (8bL	<
.	8a 8cc	.
.	[8b [8ddJ	[[
!!LO:LB:g=z
=72	=72	=72
4.E	8b] 8ddL]	>
.	8a 8cc	.
.	8g# 8bJ)	]]
=73	=73	=73
4.EE)	4.r	.
=74	=74	=74
8r	4.g# 4.ee	p
(8EL	.	.
8eJ)	.	.
=75	=75	=75
8r	4.a# 4.ee	.
(8F#L	.	.
8eJ)	.	.
=76	=76	=76
8r	4.b 4.ee	.
(8G#L	.	.
8eJ)	.	.
=77	=77	=77
8r	4.cc# 4.ee	.
(8A#L	.	.
8f#J)	.	.
=78	=78	=78
(4.B	8b (8ddL	.
.	8cc# 8ee	.
.	8dd 8ff#J)	.
=79	=79	=79
4.E	8a# (8cc#L	<
.	8b 8dd	.
.	[8cc# [8eeJ	[[
=80	=80	=80
4.F#	8cc#X] 8eeL]	>
.	8b 8dd	.
.	8a# 8cc#J)	]]
!!LO:LB:g=z
=81	=81	=81
4.FF#)	4.r	.
*clefG2	*	*
=82	=82	=82
8r	4.ff#	p
(8bL	.	.
8ddJ)	.	.
=83	=83	=83
8r	4.eeMM	.
(8cc#L	.	.
8a#J)	.	.
=84	=84	=84
8r	4.ddMM	<
(8bL	.	.
8dJ	.	.
=85	=85	=85
8eL)	4.cc#mm	[ mf >
8f#'	.	.
8F#'J	.	]]
=86	=86	=86
8r	4.ff#	p
(8bL	.	.
8ddJ)	.	.
=87	=87	=87
8r	4.eeMM	.
(8ccnL	.	.
8aJ)	.	.
=88	=88	=88
8r	(4dd#	.
(8bL	.	.
8gJ)	8bb)	.
=89	=89	=89
8r	(4cc	.
(8aL	.	.
8f#J)	8aa)	.
!!LO:LB:g=z
=90	=90	=90
8r	(4b	.
(8d#L	.	.
8eJ)	8gg)	.
*clefF4	*	*
=91	=91	=91
8r	(4a	.
(8cL	.	.
8dnJ)	8ff#)	.
=92	=92	=92
8r	(4g	<
(8BL	.	.
8cJ)	8ee)	.
=93	=93	=93
8r	(4f#	.
(8AL	.	.
8BJ)	8dd)	.
=94	=94	=94
8r	(4e	.
(8GL	.	.
8AJ)	8cc)	.
=95	=95	=95
(8F#L	4d	mf
8G)	.	.
8GG'J	([8b^/	.
=96	=96	=96
4.CC^	8bL]	.
.	8a')	.
.	8g'J	.
=97	=97	=97
(4C	(8f#L	.
.	8a	.
[8BB)	8gJ	.
=98	=98	=98
8BBL]	8d'L)	f
8AA'	8c'	.
8GG'J	8B'J	.
*	*clefF4	*clefF4
!!LO:LB:g=z
=99	=99	=99
4.DD	8A'L	.
.	(8d	mf
.	8BJ	.
=100	=100	=100
4.DD	8cL	.
.	8F#)	.
.	8G' 8B'J	f
=101	=101	=101
4.DD	8F#' (8A'L	.
.	8d	p
.	8BJ	.
=102	=102	=102
4.DD	8cL	.
.	8F#)	.
.	8G' 8B'J	.
=103	=103	=103
4.DD	8F#' 8A'L	.
.	8G (8B	<
.	8A 8c#J	.
=104	=104	=104
4.DD	8B 8dL	.
.	8c# 8e)	[
.	(<[8G'^< 8c#'^<J	mf
=105	=105	=105
*	*^	*
4.DD	4.d^	8GL]	>
.	.	16F#L	.
.	.	16EJ	.
.	.	8D'J)	.
*	*v	*v	*
=106	=106	=106
4.r;	4.r;	]
*clefG2	*clefG2	*clefG2
=107	=107	=107
8r	(4.b-	p
(8dL	.	.
8gJ)	.	.
!!LO:LB:g=z
=108	=108	=108
8r	4.cc#	.
(8dL	.	.
8aJ)	.	.
=109	=109	=109
8r	4.dd	.
(8dL	.	.
8b-J)	.	.
=110	=110	=110
8r	4.ee- 4.ff#X)	.
(8dL	.	.
8ccJ	.	.
=111	=111	=111
*	*^	*
8b-L	(8ggL	4.dd	<
8a	8aa	.	.
8gJ)	[8bb-J	.	[[
*clefF4	*	*	*
=112	=112	=112	=112
(4.AA	8bb-XL]	4.cc#	mf
.	8aa	.	.
.	8ggJ	.	.
=113	=113	=113	=113
4.DD)	8ff#XL	8dd	.
.	8gg	4ryy	.
.	8aaJ)	.	.
*	*v	*v	*
=114	=114	=114
4.r	(8ccnL	>
.	8b-	.
.	8aJ	]]
*clefG2	*	*
=115	=115	=115
8r	4.b-	p
(8dL	.	.
8gJ)	.	.
=116	=116	=116
8r	4.cc#	.
(8dL	.	.
8aJ)	.	.
!!LO:LB:g=z
=117	=117	=117
8r	4.dd	.
(8dL	.	.
8b-J)	.	.
=118	=118	=118
8r	4.ee- 4.ff#X)	.
(8dL	.	.
8ccJ	.	.
=119	=119	=119
*	*^	*
8b-L	(8ggL	4.dd	<
8a	8aa	.	.
8gJ)	[8bb-J	.	.
*clefF4	*	*	*
=120	=120	=120	=120
(4.AA	8bb-XL]	4.cc#	.
.	8aa	.	.
.	8ggJ	.	.
=121	=121	=121	=121
4.DD)	8aaL	4.ccn	.
.	8bb-	.	.
.	[8cccJ	.	.
=122	=122	=122	=122
(<4.DD	8cccL]	4.ff#X	.
.	8bb-	.	.
.	8aaJ	.	.
=123	=123	=123	=123
4.GG	8bb-L	8gg	.
.	8ccc	4ryy	.
.	[>8dddJ	.	.
*	*v	*v	*
=124	=124	=124
4.BB-	16dddLL]	.
.	16ccc	.
.	16bb-	.
.	16aa	.
.	16gg	.
.	16ffnJJ	.
!!LO:LB:g=z
=125	=125	=125
4.C	16ee-LL	.
.	16dd	.
.	16cc	.
.	16ccc	.
.	16bb-	.
.	16aaJJ	.
=126	=126	=126
4.D/	8gg')	.
.	[16ff#qq	.
.	(4ff#t]	.
.	32eeqLLL	.
.	32ff#qJJJ	.
=127	=127	=127
4GG)	8gg'L)	f
.	(16ddL	.
.	16bbn	.
(8G	16aa	.
.	16ggJJ	.
=128	=128	=128
8F#'L)	8ddd'L)	.
(8D	(16ddL	.
.	16ccc	.
8F#J	16bb	.
.	16aaJJ	.
=129	=129	=129
8G'L)	8gg'L)	.
(8GG	(16ddL	.
.	16bb	.
8GJ	16aa	.
.	16ggJJ	.
=130	=130	=130
8F#'L)	8ddd'L)	.
(8D	(16ddL	.
.	16ccc	.
8F#J	16bb	.
.	16aaJJ	.
=131	=131	=131
4G)	8gg'L)	.
.	(16ddL	.
.	16bb	.
(8GG	16aa	.
.	16ggJJ	.
!!LO:LB:g=z
=132	=132	=132
8BB'L)	16dddLL	.
.	16ccc	.
8GG'	16bb	.
.	16aa	.
8BB'J	16gg	.
.	16ff#JJ	.
=133	=133	=133
4C	16eeLL	.
.	16dd	.
.	16cc	.
.	16ccc	.
(8c	16bb	.
.	16aaJJ	.
=134	=134	=134
4d	8gg')	.
.	[16ff#qq	.
.	(4ff#t]	.
8D	.	.
.	32eeqLLL	.
.	32ff#qJJJ	.
=135	=135	=135
4GG)	8gg'L)	.
.	(16ddL	p
.	16bb	<
(8G	16aa	.
.	16ggJJ	.
=136	=136	=136
8F#'L)	8ddd'L)	.
(8D	16ddL	.
.	16ccc	.
8F#J	16bb	.
.	16aaJJ	.
=137	=137	=137
8G'L)	8gg'L	.
(8GG	(16ddL	.
.	16bb	.
8GJ	16aa	.
.	16ggJJ	.
!!LO:LB:g=z
=138	=138	=138
8F#'L)	8ddd'L)	.
(8D	(16ddL	.
.	16ccc	.
8F#J	16bb	.
.	16aaJJ	.
=139	=139	=139
4G)	8gg'L)	.
.	(16ddL	.
.	16bb	.
(8GG	16aa	.
.	16ggJJ	.
=140	=140	=140
8BBL)	16dddLL	f
.	16ccc	.
8GG'	16bb	.
.	16aa	.
8BB'J	16gg	.
.	16ff#JJ	.
=141	=141	=141
4C	16eeLL	.
.	16dd	.
.	16cc	.
.	16b	.
(8CC	16a	.
.	16gJJ	.
=142	=142	=142
4DD)	16f#LL	.
.	16e	.
.	16d	.
.	16c	.
8DD'	16B	.
.	16AJJ	.
=143	=143	=143
4.GGG	4.G)MM	.
==:|!	==:|!	==:|!
*-	*-	*-
!!!RDF**kern: > = above
!!!RDF**kern: < = below
!!!RDF**dynam: < = cres.
!!!PTL: Domenico Scarlatti: Opere complete per clavicembalo
!!!PED: Longo, Alessandro
!!!PPR: Ricordi
!!!PPP: Milan
!!!PDT: 1906-1913
!!!ENC: Craig Stuart Sapp
!!!END: 2004/10/27
!!!EED: Craig Stuart Sapp
!!!EEV: 2021/06/12
